icons/icn_cruz.svg

<svg width="24" xmlns="http://www.w3.org/2000/svg" height="24" id="screenshot-9e86c76b-3a31-802a-8006-543dbdc0c8d4" viewBox="0 0 24 24" xmlns:xlink="http://www.w3.org/1999/xlink" fill="none" version="1.1"><g id="shape-9e86c76b-3a31-802a-8006-543dbdc0c8d4"><g class="frame-container-wrapper"><g class="frame-container-blur"><g class="frame-container-shadows"><g fill="none"><g class="fills" id="fills-9e86c76b-3a31-802a-8006-543dbdc0c8d4"><rect rx="0" ry="0" x="0" y="0" width="24" height="24.000000000000455" transform="matrix(1, 0, 0, 1, 0, 0)" class="frame-background"/></g><g class="frame-children"><g id="shape-9e86c76b-3a31-802a-8006-543db6308c94" rx="0" ry="0" style="fill: rgb(0, 0, 0);"><g id="shape-9e86c76b-3a31-802a-8006-543db6308c97" style="opacity: 1;"><g class="fills" id="fills-9e86c76b-3a31-802a-8006-543db6308c97"><path d="M2.997851610183716,2.2695014476776123C2.803759813308716,2.2697455883026123,2.617724657058716,2.3470160961151123,2.480273485183716,2.4842231273651123C2.196582078933716,2.7701117992401123,2.196582078933716,3.2311713695526123,2.480273485183716,3.5170600414276123L10.960497856140137,11.997040748596191L2.480273485183716,20.475067138671875C2.341601610183716,20.612762451171875,2.263720750808716,20.800018310546875,2.263720750808716,20.995452880859375C2.263720750808716,21.190765380859375,2.341601610183716,21.378143310546875,2.480273485183716,21.515838623046875C2.617968797683716,21.654388427734375,2.805468797683716,21.732391357421875,3.000781297683716,21.732391357421875C3.196337938308716,21.732391357421875,3.383593797683716,21.654388427734375,3.521289110183716,21.515838623046875L11.999316215515137,13.037812232971191L20.477344512939453,21.515838623046875C20.615039825439453,21.654388427734375,20.802539825439453,21.732391357421875,20.997852325439453,21.732391357421875C21.193408966064453,21.732391357421875,21.380664825439453,21.654388427734375,21.518360137939453,21.515838623046875C21.657032012939453,21.378143310546875,21.735157012939453,21.190765380859375,21.735157012939453,20.995452880859375C21.735157012939453,20.800018310546875,21.657032012939453,20.612762451171875,21.518360137939453,20.475067138671875L13.038378715515137,11.997040748596191L21.518360137939453,3.5170600414276123C21.802051544189453,3.2311713695526123,21.802051544189453,2.7701117992401123,21.518360137939453,2.4842231273651123C21.380664825439453,2.3455512523651123,21.193408966064453,2.2675483226776123,20.997852325439453,2.2675483226776123C20.802539825439453,2.2675483226776123,20.615039825439453,2.3455512523651123,20.477344512939453,2.4842231273651123L11.999316215515137,10.960297584533691L3.521289110183716,2.4842231273651123C3.382617235183716,2.3455512523651123,3.194140672683716,2.2681586742401123,2.997851610183716,2.2695014476776123Z" style="display: inline; stroke-linecap: round; stroke-linejoin: bevel; fill: rgb(0, 0, 0); fill-opacity: 1;"/></g></g></g></g></g></g></g></g></g></svg>

<svg fill="none" viewBox="0 0 24 24"><g class="frame-container-wrapper"><g class="frame-container-blur"><g class="frame-container-shadows"><g class="fills"><rect width="24" height="24" class="frame-background" rx="0" ry="0"/></g><g class="frame-children"><path fill="#000" d="M2.9979 2.2695a.734.734 0 0 0-.5176.2147.733.733 0 0 0 0 1.0329l8.4802 8.48-8.4802 8.478a.7332.7332 0 0 0 0 1.0407.7342.7342 0 0 0 1.041 0l8.478-8.478 8.478 8.478a.7342.7342 0 0 0 1.041 0 .7336.7336 0 0 0 .2169-.5203.7334.7334 0 0 0-.2168-.5204l-8.48-8.478 8.48-8.48a.733.733 0 0 0-.5205-1.2496.7338.7338 0 0 0-.5206.2167l-8.478 8.4761-8.478-8.476a.7331.7331 0 0 0-.5234-.2148Z" class="fills"/></g></g></g></g></svg>
